packages/foundations/assets/icons/functional/images/environment/moon.svg

<svg xmlns="http://www.w3.org/2000/svg" width="32" height="32" fill="none"><path fill="#1A1C1F" fill-rule="evenodd" d="M14.64 3.121c-2.282.359-4.395 1.27-6.151 2.654-.516.406-1.514 1.38-1.959 1.911-.764.911-1.612 2.332-2.048 3.429-.65 1.636-.929 3.102-.928 4.885 0 2.096.404 3.836 1.331 5.741 1.224 2.514 3.312 4.598 5.89 5.881 1.835.912 3.678 1.342 5.758 1.342 1.526 0 2.64-.176 4.054-.642 2.809-.926 5.13-2.687 6.748-5.122.522-.784 1.007-1.687 1.093-2.032a.98.98 0 0 0-.597-1.139c-.182-.072-.328-.082-.839-.052-1.213.07-2.656-.144-3.992-.59-3.52-1.176-6.218-4.112-7.134-7.76-.217-.864-.301-1.604-.301-2.64 0-1.593.245-2.846.837-4.276.293-.708.235-1.127-.207-1.481-.187-.149-.242-.164-.64-.174a6 6 0 0 0-.915.065m-.723 2.741c-.081.32-.2.95-.265 1.4-.103.714-.115.967-.091 1.991.021.871.058 1.344.144 1.833.488 2.761 1.707 5.129 3.627 7.048 1.091 1.09 2.111 1.825 3.441 2.479 1.365.671 2.572 1.045 3.951 1.227.379.049.767.101.863.114l.174.024-.302.411c-1.387 1.891-3.301 3.314-5.394 4.012-4.001 1.334-8.322.323-11.292-2.641a10.95 10.95 0 0 1-3.226-7.779c0-4.163 2.151-7.679 5.92-9.678.686-.364 2.288-1.008 2.538-1.02.036-.002.003.215-.088.579"/></svg>

<svg width="32" height="32" viewBox="0 0 32 32" fill="none" xmlns="http://www.w3.org/2000/svg"><path d="M14.640 3.121 C 12.358 3.480,10.245 4.391,8.489 5.775 C 7.973 6.181,6.975 7.155,6.530 7.686 C 5.766 8.597,4.918 10.018,4.482 11.115 C 3.832 12.751,3.553 14.217,3.554 16.000 C 3.554 18.096,3.958 19.836,4.885 21.741 C 6.109 24.255,8.197 26.339,10.775 27.622 C 12.610 28.534,14.453 28.964,16.533 28.964 C 18.059 28.964,19.173 28.788,20.587 28.322 C 23.396 27.396,25.717 25.635,27.335 23.200 C 27.857 22.416,28.342 21.513,28.428 21.168 C 28.544 20.701,28.288 20.212,27.831 20.029 C 27.649 19.957,27.503 19.947,26.992 19.977 C 25.779 20.047,24.336 19.833,23.000 19.387 C 19.480 18.211,16.782 15.275,15.866 11.627 C 15.649 10.763,15.565 10.023,15.565 8.987 C 15.565 7.394,15.810 6.141,16.402 4.711 C 16.695 4.003,16.637 3.584,16.195 3.230 C 16.008 3.081,15.953 3.066,15.555 3.056 C 15.316 3.050,14.904 3.079,14.640 3.121 M13.917 5.862 C 13.836 6.182,13.717 6.812,13.652 7.262 C 13.549 7.976,13.537 8.229,13.561 9.253 C 13.582 10.124,13.619 10.597,13.705 11.086 C 14.193 13.847,15.412 16.215,17.332 18.134 C 18.423 19.224,19.443 19.959,20.773 20.613 C 22.138 21.284,23.345 21.658,24.724 21.840 C 25.103 21.889,25.491 21.941,25.587 21.954 L 25.761 21.978 25.459 22.389 C 24.072 24.280,22.158 25.703,20.065 26.401 C 16.064 27.735,11.743 26.724,8.773 23.760 C 6.699 21.689,5.547 18.911,5.547 15.981 C 5.547 11.818,7.698 8.302,11.467 6.303 C 12.153 5.939,13.755 5.295,14.005 5.283 C 14.041 5.281,14.008 5.498,13.917 5.862 " fill="#1A1C1F" stroke="none" fill-rule="evenodd"></path></svg>
